urcenter/urcenter/img/advantages/icon-3.svg

<svg width="44" height="62" viewBox="0 0 44 62" fill="none" xmlns="http://www.w3.org/2000/svg">
<rect width="38.383" height="54.597" rx="5" fill="url(#paint0_linear)" fill-opacity="0.5"/>
<path d="M38.968 62.0001H8.77654C6.00183 62.0001 3.74463 59.7381 3.74463 56.9575V9.66951C3.74463 6.88893 6.00183 4.62695 8.77654 4.62695H38.968C41.7427 4.62695 43.9999 6.88893 43.9999 9.66951V56.9575C43.9999 59.7381 41.7427 62.0001 38.968 62.0001Z" fill="url(#paint1_linear)"/>
<path d="M35.6134 11.3503H12.1312C11.2041 11.3503 10.4539 12.1021 10.4539 13.0312V26.478C10.4539 27.4071 11.2041 28.1589 12.1312 28.1589H35.6134C36.5405 28.1589 37.2907 27.4071 37.2907 26.478V13.0312C37.2907 12.1021 36.5405 11.3503 35.6134 11.3503ZM15.4858 31.5206H12.1312C11.2041 31.5206 10.4539 32.2724 10.4539 33.2014C10.4539 34.1305 11.2041 34.8823 12.1312 34.8823H15.4858C16.4129 34.8823 17.1631 34.1305 17.1631 33.2014C17.1631 32.2724 16.4129 31.5206 15.4858 31.5206ZM15.4858 38.244H12.1312C11.2041 38.244 10.4539 38.9958 10.4539 39.9249C10.4539 40.8539 11.2041 41.6057 12.1312 41.6057H15.4858C16.4129 41.6057 17.1631 40.8539 17.1631 39.9249C17.1631 38.9958 16.4129 38.244 15.4858 38.244ZM22.195 41.6057H25.5496C26.4767 41.6057 27.2269 40.8539 27.2269 39.9249C27.2269 38.9958 26.4767 38.244 25.5496 38.244H22.195C21.2679 38.244 20.5177 38.9958 20.5177 39.9249C20.5177 40.8539 21.2679 41.6057 22.195 41.6057ZM35.6134 38.244H32.2588C31.3317 38.244 30.5815 38.9958 30.5815 39.9249C30.5815 40.8539 31.3317 41.6057 32.2588 41.6057H35.6134C36.5405 41.6057 37.2907 40.8539 37.2907 39.9249C37.2907 38.9958 36.5405 38.244 35.6134 38.244ZM35.6134 44.9674H32.2588C31.3317 44.9674 30.5815 45.7192 30.5815 46.6483C30.5815 47.5773 31.3317 48.3291 32.2588 48.3291H35.6134C36.5405 48.3291 37.2907 47.5773 37.2907 46.6483C37.2907 45.7192 36.5405 44.9674 35.6134 44.9674ZM22.195 48.3291H25.5496C26.4767 48.3291 27.2269 47.5773 27.2269 46.6483C27.2269 45.7192 26.4767 44.9674 25.5496 44.9674H22.195C21.2679 44.9674 20.5177 45.7192 20.5177 46.6483C20.5177 47.5773 21.2679 48.3291 22.195 48.3291ZM15.4858 44.9674H12.1312C11.2041 44.9674 10.4539 45.7192 10.4539 46.6483C10.4539 47.5773 11.2041 48.3291 12.1312 48.3291H15.4858C16.4129 48.3291 17.1631 47.5773 17.1631 46.6483C17.1631 45.7192 16.4129 44.9674 15.4858 44.9674ZM15.4858 51.6908H12.1312C11.2041 51.6908 10.4539 52.4426 10.4539 53.3717C10.4539 54.3007 11.2041 55.0525 12.1312 55.0525H15.4858C16.4129 55.0525 17.1631 54.3007 17.1631 53.3717C17.1631 52.4426 16.4129 51.6908 15.4858 51.6908ZM35.6134 51.6908H22.195C21.2679 51.6908 20.5177 52.4426 20.5177 53.3717C20.5177 54.3007 21.2679 55.0525 22.195 55.0525H35.6134C36.5405 55.0525 37.2907 54.3007 37.2907 53.3717C37.2907 52.4426 36.5405 51.6908 35.6134 51.6908ZM22.195 34.8823H25.5496C26.4767 34.8823 27.2269 34.1305 27.2269 33.2014C27.2269 32.2724 26.4767 31.5206 25.5496 31.5206H22.195C21.2679 31.5206 20.5177 32.2724 20.5177 33.2014C20.5177 34.1305 21.2679 34.8823 22.195 34.8823ZM35.6134 31.5206H32.2588C31.3317 31.5206 30.5815 32.2724 30.5815 33.2014C30.5815 34.1305 31.3317 34.8823 32.2588 34.8823H35.6134C36.5405 34.8823 37.2907 34.1305 37.2907 33.2014C37.2907 32.2724 36.5405 31.5206 35.6134 31.5206Z" fill="url(#paint2_linear)"/>
<rect x="20.5957" y="51.8208" width="16.8511" height="3.70149" rx="1.85075" fill="url(#paint3_linear)"/>
<defs>
<linearGradient id="paint0_linear" x1="8.27868" y1="0" x2="38.383" y2="0" gradientUnits="userSpaceOnUse">
<stop stop-color="#E1D8FF"/>
<stop offset="1" stop-color="#F4ECFF"/>
</linearGradient>
<linearGradient id="paint1_linear" x1="12.4271" y1="4.62695" x2="43.9999" y2="4.62695" gradientUnits="userSpaceOnUse">
<stop stop-color="#E1D8FF"/>
<stop offset="1" stop-color="#F4ECFF"/>
</linearGradient>
<linearGradient id="paint2_linear" x1="23.8723" y1="55.0525" x2="23.8723" y2="11.3503" gradientUnits="userSpaceOnUse">
<stop stop-color="#BBA6FF"/>
<stop offset="1" stop-color="#E3D7FA"/>
</linearGradient>
<linearGradient id="paint3_linear" x1="22" y1="52.7462" x2="37.9036" y2="55.5854" gradientUnits="userSpaceOnUse">
<stop stop-color="#4614E8"/>
<stop offset="1" stop-color="#BCA7FF"/>
</linearGradient>
</defs>
</svg>

<svg width="44" height="62" fill="none" xmlns="http://www.w3.org/2000/svg"><rect width="38.383" height="54.597" rx="5" fill="url(#paint0_linear)" fill-opacity=".5"/><path d="M38.968 62H8.777c-2.775 0-5.032-2.262-5.032-5.042V9.67c0-2.781 2.257-5.043 5.032-5.043h30.191C41.743 4.627 44 6.889 44 9.67v47.288C44 59.738 41.743 62 38.968 62z" fill="url(#paint1_linear)"/><path d="M35.613 11.35H12.131c-.927 0-1.677.752-1.677 1.681v13.447c0 .93.75 1.68 1.677 1.68h23.482c.928 0 1.678-.75 1.678-1.68V13.031c0-.929-.75-1.68-1.678-1.68zM15.486 31.52H12.13c-.927 0-1.677.752-1.677 1.681 0 .93.75 1.681 1.677 1.681h3.355c.927 0 1.677-.752 1.677-1.68 0-.93-.75-1.681-1.677-1.681zm0 6.724H12.13c-.927 0-1.677.752-1.677 1.68 0 .93.75 1.682 1.677 1.682h3.355c.927 0 1.677-.752 1.677-1.681 0-.93-.75-1.681-1.677-1.681zm6.709 3.362h3.355c.927 0 1.677-.752 1.677-1.681 0-.93-.75-1.681-1.677-1.681h-3.355c-.927 0-1.677.752-1.677 1.68 0 .93.75 1.682 1.677 1.682zm13.418-3.362H32.26c-.927 0-1.678.752-1.678 1.68 0 .93.75 1.682 1.678 1.682h3.354c.928 0 1.678-.752 1.678-1.681 0-.93-.75-1.681-1.678-1.681zm0 6.723H32.26c-.927 0-1.678.752-1.678 1.681 0 .93.75 1.681 1.678 1.681h3.354c.928 0 1.678-.752 1.678-1.68 0-.93-.75-1.682-1.678-1.682zM22.195 48.33h3.355c.927 0 1.677-.752 1.677-1.68 0-.93-.75-1.682-1.677-1.682h-3.355c-.927 0-1.677.752-1.677 1.681 0 .93.75 1.681 1.677 1.681zm-6.71-3.362h-3.354c-.927 0-1.677.752-1.677 1.681 0 .93.75 1.681 1.677 1.681h3.355c.927 0 1.677-.752 1.677-1.68 0-.93-.75-1.682-1.677-1.682zm0 6.724h-3.354c-.927 0-1.677.752-1.677 1.68 0 .93.75 1.681 1.677 1.681h3.355c.927 0 1.677-.751 1.677-1.68 0-.93-.75-1.681-1.677-1.681zm20.128 0H22.195c-.927 0-1.677.752-1.677 1.68 0 .93.75 1.681 1.677 1.681h13.418c.928 0 1.678-.751 1.678-1.68 0-.93-.75-1.681-1.678-1.681zm-13.418-16.81h3.355c.927 0 1.677-.752 1.677-1.68 0-.93-.75-1.681-1.677-1.681h-3.355c-.927 0-1.677.751-1.677 1.68 0 .93.75 1.681 1.677 1.681zm13.418-3.361H32.26c-.927 0-1.678.751-1.678 1.68 0 .93.75 1.681 1.678 1.681h3.354c.928 0 1.678-.752 1.678-1.68 0-.93-.75-1.681-1.678-1.681z" fill="url(#paint2_linear)"/><rect x="20.596" y="51.821" width="16.851" height="3.701" rx="1.851" fill="url(#paint3_linear)"/><defs><linearGradient id="paint0_linear" x1="8.279" y1="0" x2="38.383" y2="0" gradientUnits="userSpaceOnUse"><stop stop-color="#E1D8FF"/><stop offset="1" stop-color="#F4ECFF"/></linearGradient><linearGradient id="paint1_linear" x1="12.427" y1="4.627" x2="44" y2="4.627" gradientUnits="userSpaceOnUse"><stop stop-color="#E1D8FF"/><stop offset="1" stop-color="#F4ECFF"/></linearGradient><linearGradient id="paint2_linear" x1="23.872" y1="55.053" x2="23.872" y2="11.35" gradientUnits="userSpaceOnUse"><stop stop-color="#BBA6FF"/><stop offset="1" stop-color="#E3D7FA"/></linearGradient><linearGradient id="paint3_linear" x1="22" y1="52.746" x2="37.904" y2="55.585" gradientUnits="userSpaceOnUse"><stop stop-color="#4614E8"/><stop offset="1" stop-color="#BCA7FF"/></linearGradient></defs></svg>
